X:7425
T:the Trip to Paris
O:england
R:Jig
M:6/8
N:also in MR.
K:A
E| \
A2A Ace | A2A ABc | d2B BcA | G2E EFG | \
A2A e2c | A2A f2d | F2B GFG | A3 A2 :|
|:A|\
a2A g2A | f2A e2A | F2B BcA | G2B B2e |\
afa geg | fdf ecA | FdB G^FG | A3 A2:|


